images/content/johnson-solids/parabiaugmented-hexagonal-prism.svg

<?xml version="1.0" encoding="UTF-8"?>
<svg xmlns="http://www.w3.org/2000/svg" xmlns:xlink="http://www.w3.org/1999/xlink" width="266pt" height="200pt" viewBox="0 0 266 200" version="1.2">
<g id="surface1">
<path style="fill-rule:nonzero;fill:rgb(90.429688%,68.943787%,60.15625%);fill-opacity:1;stroke-width:8.52;stroke-linecap:round;stroke-linejoin:round;stroke:rgb(0%,0%,0%);stroke-opacity:1;stroke-miterlimit:10;" d="M 1147.34375 1050 L 655.273438 500.898438 L 355.859375 1157.265625 " transform="matrix(0.1,0,0,-0.1,0,200)"/>
<path style="fill-rule:nonzero;fill:rgb(90.429688%,68.943787%,60.15625%);fill-opacity:1;stroke-width:8.52;stroke-linecap:round;stroke-linejoin:round;stroke:rgb(0%,0%,0%);stroke-opacity:1;stroke-miterlimit:10;" d="M 355.859375 1157.265625 L 891.132812 1705.15625 L 1147.34375 1050 " transform="matrix(0.1,0,0,-0.1,0,200)"/>
<path style="fill-rule:nonzero;fill:rgb(65.818787%,39.697266%,51.367188%);fill-opacity:1;stroke-width:8.52;stroke-linecap:round;stroke-linejoin:round;stroke:rgb(0%,0%,0%);stroke-opacity:1;stroke-miterlimit:10;" d="M 1950 1184.765625 L 1147.34375 1050 L 891.132812 1705.15625 " transform="matrix(0.1,0,0,-0.1,0,200)"/>
<path style=" stroke:none;fill-rule:nonzero;fill:rgb(56.25%,65.818787%,90.039062%);fill-opacity:1;" d="M 114.734375 95 L 195 81.523438 L 188.085938 186.398438 "/>
<path style="fill:none;stroke-width:8.52;stroke-linecap:round;stroke-linejoin:round;stroke:rgb(0%,0%,0%);stroke-opacity:1;stroke-miterlimit:10;" d="M 1147.34375 1050 L 1950 1184.765625 " transform="matrix(0.1,0,0,-0.1,0,200)"/>
<path style=" stroke:none;fill-rule:nonzero;fill:rgb(56.25%,65.818787%,90.039062%);fill-opacity:1;" d="M 65.527344 149.910156 L 114.734375 95 L 188.085938 186.398438 "/>
<path style="fill:none;stroke-width:8.52;stroke-linecap:round;stroke-linejoin:round;stroke:rgb(0%,0%,0%);stroke-opacity:1;stroke-miterlimit:10;" d="M 655.273438 500.898438 L 1147.34375 1050 " transform="matrix(0.1,0,0,-0.1,0,200)"/>
<path style=" stroke:none;fill-rule:nonzero;fill:rgb(42.30957%,43.406677%,76.756287%);fill-opacity:1;" d="M 195 81.523438 L 258.984375 39.421875 L 236.101562 123.777344 "/>
<path style="fill:none;stroke-width:8.52;stroke-linecap:round;stroke-linejoin:round;stroke:rgb(0%,0%,0%);stroke-opacity:1;stroke-miterlimit:10;" d="M 1950 1184.765625 L 2589.84375 1605.78125 L 2361.015625 762.226562 Z M 1950 1184.765625 " transform="matrix(0.1,0,0,-0.1,0,200)"/>
<path style=" stroke:none;fill-rule:nonzero;fill:rgb(63.084412%,36.888123%,50.389099%);fill-opacity:1;" d="M 173.441406 13.496094 L 258.984375 39.421875 L 195 81.523438 "/>
<path style="fill:none;stroke-width:8.52;stroke-linecap:round;stroke-linejoin:round;stroke:rgb(0%,0%,0%);stroke-opacity:1;stroke-miterlimit:10;" d="M 1734.414062 1865.039062 L 2589.84375 1605.78125 L 1950 1184.765625 Z M 1734.414062 1865.039062 " transform="matrix(0.1,0,0,-0.1,0,200)"/>
<path style="fill-rule:nonzero;fill:rgb(65.818787%,39.697266%,51.367188%);fill-opacity:1;stroke-width:8.52;stroke-linecap:round;stroke-linejoin:round;stroke:rgb(0%,0%,0%);stroke-opacity:1;stroke-miterlimit:10;" d="M 891.132812 1705.15625 L 1734.414062 1865.039062 L 1950 1184.765625 " transform="matrix(0.1,0,0,-0.1,0,200)"/>
<path style="fill-rule:nonzero;fill:rgb(56.25%,65.818787%,90.039062%);fill-opacity:1;stroke-width:8.52;stroke-linecap:round;stroke-linejoin:round;stroke:rgb(0%,0%,0%);stroke-opacity:1;stroke-miterlimit:10;" d="M 1950 1184.765625 L 2361.015625 762.226562 L 1880.859375 136.015625 " transform="matrix(0.1,0,0,-0.1,0,200)"/>
<path style=" stroke:none;fill-rule:nonzero;fill:rgb(71.289062%,86.71875%,95.506287%);fill-opacity:1;" d="M 97.207031 198.804688 L 7.53125 171.828125 L 65.527344 149.910156 "/>
<path style="fill:none;stroke-width:8.52;stroke-linecap:round;stroke-linejoin:round;stroke:rgb(0%,0%,0%);stroke-opacity:1;stroke-miterlimit:10;" d="M 972.070312 11.953125 L 75.3125 281.71875 L 655.273438 500.898438 Z M 972.070312 11.953125 " transform="matrix(0.1,0,0,-0.1,0,200)"/>
<path style=" stroke:none;fill-rule:nonzero;fill:rgb(92.576599%,72.068787%,60.742188%);fill-opacity:1;" d="M 35.585938 84.273438 L 65.527344 149.910156 L 7.53125 171.828125 "/>
<path style="fill:none;stroke-width:8.52;stroke-linecap:round;stroke-linejoin:round;stroke:rgb(0%,0%,0%);stroke-opacity:1;stroke-miterlimit:10;" d="M 355.859375 1157.265625 L 655.273438 500.898438 L 75.3125 281.71875 Z M 355.859375 1157.265625 " transform="matrix(0.1,0,0,-0.1,0,200)"/>
<path style="fill-rule:nonzero;fill:rgb(56.25%,65.818787%,90.039062%);fill-opacity:1;stroke-width:8.52;stroke-linecap:round;stroke-linejoin:round;stroke:rgb(0%,0%,0%);stroke-opacity:1;stroke-miterlimit:10;" d="M 1880.859375 136.015625 L 972.070312 11.953125 L 655.273438 500.898438 " transform="matrix(0.1,0,0,-0.1,0,200)"/>
<path style="fill-rule:nonzero;fill:rgb(52.929688%,66.209412%,91.992188%);fill-opacity:1;stroke-width:8.52;stroke-linecap:round;stroke-linejoin:round;stroke:rgb(0%,0%,0%);stroke-opacity:1;stroke-miterlimit:10;" d="M 1734.414062 1865.039062 L 891.132812 1705.15625 L 355.859375 1157.265625 " transform="matrix(0.1,0,0,-0.1,0,200)"/>
<path style=" stroke:none;fill-rule:nonzero;fill:rgb(96.679688%,74.21875%,55.076599%);fill-opacity:1;" d="M 215.355469 52.734375 L 236.101562 123.777344 L 258.984375 39.421875 "/>
<path style="fill:none;stroke-width:8.52;stroke-linecap:round;stroke-linejoin:round;stroke:rgb(0%,0%,0%);stroke-opacity:1;stroke-miterlimit:10;" d="M 2153.554688 1472.65625 L 2361.015625 762.226562 L 2589.84375 1605.78125 Z M 2153.554688 1472.65625 " transform="matrix(0.1,0,0,-0.1,0,200)"/>
<path style=" stroke:none;fill-rule:nonzero;fill:rgb(65.234375%,91.601562%,97.851562%);fill-opacity:1;" d="M 215.355469 52.734375 L 258.984375 39.421875 L 173.441406 13.496094 "/>
<path style="fill:none;stroke-width:8.52;stroke-linecap:round;stroke-linejoin:round;stroke:rgb(0%,0%,0%);stroke-opacity:1;stroke-miterlimit:10;" d="M 2153.554688 1472.65625 L 2589.84375 1605.78125 L 1734.414062 1865.039062 Z M 2153.554688 1472.65625 " transform="matrix(0.1,0,0,-0.1,0,200)"/>
<path style="fill-rule:nonzero;fill:rgb(52.929688%,66.209412%,91.992188%);fill-opacity:1;stroke-width:8.52;stroke-linecap:round;stroke-linejoin:round;stroke:rgb(0%,0%,0%);stroke-opacity:1;stroke-miterlimit:10;" d="M 1628.710938 845.859375 L 2153.554688 1472.65625 L 1734.414062 1865.039062 " transform="matrix(0.1,0,0,-0.1,0,200)"/>
<path style=" stroke:none;fill-rule:nonzero;fill:rgb(52.929688%,66.209412%,91.992188%);fill-opacity:1;" d="M 66.765625 130.710938 L 162.871094 115.414062 L 173.441406 13.496094 "/>
<path style="fill:none;stroke-width:8.52;stroke-linecap:round;stroke-linejoin:round;stroke:rgb(0%,0%,0%);stroke-opacity:1;stroke-miterlimit:10;" d="M 667.65625 692.890625 L 1628.710938 845.859375 " transform="matrix(0.1,0,0,-0.1,0,200)"/>
<path style=" stroke:none;fill-rule:nonzero;fill:rgb(52.929688%,66.209412%,91.992188%);fill-opacity:1;" d="M 35.585938 84.273438 L 66.765625 130.710938 L 173.441406 13.496094 "/>
<path style="fill:none;stroke-width:8.52;stroke-linecap:round;stroke-linejoin:round;stroke:rgb(0%,0%,0%);stroke-opacity:1;stroke-miterlimit:10;" d="M 355.859375 1157.265625 L 667.65625 692.890625 " transform="matrix(0.1,0,0,-0.1,0,200)"/>
<path style="fill-rule:nonzero;fill:rgb(94.139099%,70.701599%,55.46875%);fill-opacity:1;stroke-width:8.52;stroke-linecap:round;stroke-linejoin:round;stroke:rgb(0%,0%,0%);stroke-opacity:1;stroke-miterlimit:10;" d="M 1880.859375 136.015625 L 2361.015625 762.226562 L 2153.554688 1472.65625 " transform="matrix(0.1,0,0,-0.1,0,200)"/>
<path style=" stroke:none;fill-rule:nonzero;fill:rgb(31.90918%,37.5%,76.367188%);fill-opacity:1;" d="M 35.585938 84.273438 L 7.53125 171.828125 L 66.765625 130.710938 "/>
<path style="fill:none;stroke-width:8.52;stroke-linecap:round;stroke-linejoin:round;stroke:rgb(0%,0%,0%);stroke-opacity:1;stroke-miterlimit:10;" d="M 355.859375 1157.265625 L 75.3125 281.71875 L 667.65625 692.890625 Z M 355.859375 1157.265625 " transform="matrix(0.1,0,0,-0.1,0,200)"/>
<path style=" stroke:none;fill-rule:nonzero;fill:rgb(60.15625%,30.809021%,44.309998%);fill-opacity:1;" d="M 66.765625 130.710938 L 7.53125 171.828125 L 97.207031 198.804688 "/>
<path style="fill:none;stroke-width:8.52;stroke-linecap:round;stroke-linejoin:round;stroke:rgb(0%,0%,0%);stroke-opacity:1;stroke-miterlimit:10;" d="M 667.65625 692.890625 L 75.3125 281.71875 L 972.070312 11.953125 Z M 667.65625 692.890625 " transform="matrix(0.1,0,0,-0.1,0,200)"/>
<path style="fill-rule:nonzero;fill:rgb(63.867188%,34.788513%,46.09375%);fill-opacity:1;stroke-width:8.52;stroke-linecap:round;stroke-linejoin:round;stroke:rgb(0%,0%,0%);stroke-opacity:1;stroke-miterlimit:10;" d="M 972.070312 11.953125 L 1880.859375 136.015625 L 1628.710938 845.859375 " transform="matrix(0.1,0,0,-0.1,0,200)"/>
<path style="fill-rule:nonzero;fill:rgb(63.867188%,34.788513%,46.09375%);fill-opacity:1;stroke-width:8.52;stroke-linecap:round;stroke-linejoin:round;stroke:rgb(0%,0%,0%);stroke-opacity:1;stroke-miterlimit:10;" d="M 1628.710938 845.859375 L 667.65625 692.890625 L 972.070312 11.953125 " transform="matrix(0.1,0,0,-0.1,0,200)"/>
<path style="fill-rule:nonzero;fill:rgb(94.139099%,70.701599%,55.46875%);fill-opacity:1;stroke-width:8.52;stroke-linecap:round;stroke-linejoin:round;stroke:rgb(0%,0%,0%);stroke-opacity:1;stroke-miterlimit:10;" d="M 2153.554688 1472.65625 L 1628.710938 845.859375 L 1880.859375 136.015625 " transform="matrix(0.1,0,0,-0.1,0,200)"/>
</g>
</svg>

<svg xmlns="http://www.w3.org/2000/svg" width="266pt" height="200pt" viewBox="0 0 266 200" version="1.2"><path style="fill-rule:nonzero;fill:#e7b099;fill-opacity:1;stroke-width:8.52;stroke-linecap:round;stroke-linejoin:round;stroke:#000;stroke-opacity:1;stroke-miterlimit:10" d="m1147.344 1050-492.07-549.102-299.415 656.368" transform="matrix(.1 0 0 -.1 0 200)"/><path style="fill-rule:nonzero;fill:#e7b099;fill-opacity:1;stroke-width:8.52;stroke-linecap:round;stroke-linejoin:round;stroke:#000;stroke-opacity:1;stroke-miterlimit:10" d="m355.86 1157.266 535.273 547.89L1147.343 1050" transform="matrix(.1 0 0 -.1 0 200)"/><path style="fill-rule:nonzero;fill:#a86583;fill-opacity:1;stroke-width:8.52;stroke-linecap:round;stroke-linejoin:round;stroke:#000;stroke-opacity:1;stroke-miterlimit:10" d="M1950 1184.766 1147.344 1050l-256.211 655.156" transform="matrix(.1 0 0 -.1 0 200)"/><path style="stroke:none;fill-rule:nonzero;fill:#8fa8e6;fill-opacity:1" d="M114.734 95 195 81.523l-6.914 104.875"/><path style="fill:none;stroke-width:8.52;stroke-linecap:round;stroke-linejoin:round;stroke:#000;stroke-opacity:1;stroke-miterlimit:10" d="M1147.344 1050 1950 1184.766" transform="matrix(.1 0 0 -.1 0 200)"/><path style="stroke:none;fill-rule:nonzero;fill:#8fa8e6;fill-opacity:1" d="M65.527 149.91 114.734 95l73.352 91.398"/><path style="fill:none;stroke-width:8.52;stroke-linecap:round;stroke-linejoin:round;stroke:#000;stroke-opacity:1;stroke-miterlimit:10" d="M655.273 500.898 1147.343 1050" transform="matrix(.1 0 0 -.1 0 200)"/><path style="stroke:none;fill-rule:nonzero;fill:#6c6fc4;fill-opacity:1" d="m195 81.523 63.984-42.101-22.882 84.355"/><path style="fill:none;stroke-width:8.52;stroke-linecap:round;stroke-linejoin:round;stroke:#000;stroke-opacity:1;stroke-miterlimit:10" d="m1950 1184.766 639.844 421.015-228.828-843.554Zm0 0" transform="matrix(.1 0 0 -.1 0 200)"/><path style="stroke:none;fill-rule:nonzero;fill:#a15e80;fill-opacity:1" d="m173.441 13.496 85.543 25.926L195 81.523"/><path style="fill:none;stroke-width:8.52;stroke-linecap:round;stroke-linejoin:round;stroke:#000;stroke-opacity:1;stroke-miterlimit:10" d="m1734.414 1865.04 855.43-259.259L1950 1184.766Zm0 0" transform="matrix(.1 0 0 -.1 0 200)"/><path style="fill-rule:nonzero;fill:#a86583;fill-opacity:1;stroke-width:8.52;stroke-linecap:round;stroke-linejoin:round;stroke:#000;stroke-opacity:1;stroke-miterlimit:10" d="m891.133 1705.156 843.281 159.883L1950 1184.766" transform="matrix(.1 0 0 -.1 0 200)"/><path style="fill-rule:nonzero;fill:#8fa8e6;fill-opacity:1;stroke-width:8.52;stroke-linecap:round;stroke-linejoin:round;stroke:#000;stroke-opacity:1;stroke-miterlimit:10" d="m1950 1184.766 411.016-422.54-480.157-626.21" transform="matrix(.1 0 0 -.1 0 200)"/><path style="stroke:none;fill-rule:nonzero;fill:#b6ddf4;fill-opacity:1" d="M97.207 198.805 7.531 171.828l57.996-21.918"/><path style="fill:none;stroke-width:8.52;stroke-linecap:round;stroke-linejoin:round;stroke:#000;stroke-opacity:1;stroke-miterlimit:10" d="M972.07 11.953 75.312 281.72l579.961 219.18Zm0 0" transform="matrix(.1 0 0 -.1 0 200)"/><path style="stroke:none;fill-rule:nonzero;fill:#ecb89b;fill-opacity:1" d="m35.586 84.273 29.941 65.637-57.996 21.918"/><path style="fill:none;stroke-width:8.52;stroke-linecap:round;stroke-linejoin:round;stroke:#000;stroke-opacity:1;stroke-miterlimit:10" d="m355.86 1157.266 299.413-656.368-579.96-219.18Zm0 0" transform="matrix(.1 0 0 -.1 0 200)"/><path style="fill-rule:nonzero;fill:#8fa8e6;fill-opacity:1;stroke-width:8.52;stroke-linecap:round;stroke-linejoin:round;stroke:#000;stroke-opacity:1;stroke-miterlimit:10" d="M1880.86 136.016 972.07 11.953 655.273 500.898" transform="matrix(.1 0 0 -.1 0 200)"/><path style="fill-rule:nonzero;fill:#87a9eb;fill-opacity:1;stroke-width:8.52;stroke-linecap:round;stroke-linejoin:round;stroke:#000;stroke-opacity:1;stroke-miterlimit:10" d="m1734.414 1865.04-843.281-159.884-535.274-547.89" transform="matrix(.1 0 0 -.1 0 200)"/><path style="stroke:none;fill-rule:nonzero;fill:#f7bd8c;fill-opacity:1" d="m215.355 52.734 20.747 71.043 22.882-84.355"/><path style="fill:none;stroke-width:8.52;stroke-linecap:round;stroke-linejoin:round;stroke:#000;stroke-opacity:1;stroke-miterlimit:10" d="m2153.555 1472.656 207.46-710.43 228.829 843.555Zm0 0" transform="matrix(.1 0 0 -.1 0 200)"/><path style="stroke:none;fill-rule:nonzero;fill:#a6eafa;fill-opacity:1" d="m215.355 52.734 43.63-13.312-85.544-25.926"/><path style="fill:none;stroke-width:8.52;stroke-linecap:round;stroke-linejoin:round;stroke:#000;stroke-opacity:1;stroke-miterlimit:10" d="m2153.555 1472.656 436.289 133.125-855.43 259.258Zm0 0" transform="matrix(.1 0 0 -.1 0 200)"/><path style="fill-rule:nonzero;fill:#87a9eb;fill-opacity:1;stroke-width:8.52;stroke-linecap:round;stroke-linejoin:round;stroke:#000;stroke-opacity:1;stroke-miterlimit:10" d="m1628.71 845.86 524.845 626.796-419.14 392.383" transform="matrix(.1 0 0 -.1 0 200)"/><path style="stroke:none;fill-rule:nonzero;fill:#87a9eb;fill-opacity:1" d="m66.766 130.71 96.105-15.296 10.57-101.918"/><path style="fill:none;stroke-width:8.52;stroke-linecap:round;stroke-linejoin:round;stroke:#000;stroke-opacity:1;stroke-miterlimit:10" d="m667.656 692.89 961.055 152.97" transform="matrix(.1 0 0 -.1 0 200)"/><path style="stroke:none;fill-rule:nonzero;fill:#87a9eb;fill-opacity:1" d="m35.586 84.273 31.18 46.438L173.44 13.496"/><path style="fill:none;stroke-width:8.52;stroke-linecap:round;stroke-linejoin:round;stroke:#000;stroke-opacity:1;stroke-miterlimit:10" d="M355.86 1157.266 667.655 692.89" transform="matrix(.1 0 0 -.1 0 200)"/><path style="fill-rule:nonzero;fill:#f0b48d;fill-opacity:1;stroke-width:8.52;stroke-linecap:round;stroke-linejoin:round;stroke:#000;stroke-opacity:1;stroke-miterlimit:10" d="m1880.86 136.016 480.156 626.21-207.461 710.43" transform="matrix(.1 0 0 -.1 0 200)"/><path style="stroke:none;fill-rule:nonzero;fill:#5160c3;fill-opacity:1" d="M35.586 84.273 7.53 171.828l59.235-41.117"/><path style="fill:none;stroke-width:8.52;stroke-linecap:round;stroke-linejoin:round;stroke:#000;stroke-opacity:1;stroke-miterlimit:10" d="M355.86 1157.266 75.311 281.719 667.657 692.89Zm0 0" transform="matrix(.1 0 0 -.1 0 200)"/><path style="stroke:none;fill-rule:nonzero;fill:#994f71;fill-opacity:1" d="M66.766 130.71 7.53 171.829l89.676 26.977"/><path style="fill:none;stroke-width:8.52;stroke-linecap:round;stroke-linejoin:round;stroke:#000;stroke-opacity:1;stroke-miterlimit:10" d="M667.656 692.89 75.313 281.72 972.07 11.953Zm0 0" transform="matrix(.1 0 0 -.1 0 200)"/><path style="fill-rule:nonzero;fill:#a35976;fill-opacity:1;stroke-width:8.52;stroke-linecap:round;stroke-linejoin:round;stroke:#000;stroke-opacity:1;stroke-miterlimit:10" d="m972.07 11.953 908.79 124.063-252.15 709.843M1628.71 845.86 667.657 692.89 972.07 11.954" transform="matrix(.1 0 0 -.1 0 200)"/><path style="fill-rule:nonzero;fill:#f0b48d;fill-opacity:1;stroke-width:8.52;stroke-linecap:round;stroke-linejoin:round;stroke:#000;stroke-opacity:1;stroke-miterlimit:10" d="M2153.555 1472.656 1628.71 845.86l252.148-709.843" transform="matrix(.1 0 0 -.1 0 200)"/></svg>
